X: 22
T: THE KIRKGATE HORNPIPE -- First Version
B: "Old English Country Dances", Frank Kidson ed., William Reeves pub., London 1890
Z: 2010-9-26 John Chambers <jc:trillian.mit.edu>
M: C
L: 1/8
K: G
(dc) |\
BcAB G2(dc) | B2g2 g2ag | fdec A2AG | FGEF D2dc |
BcAB G2dc | B2g2 g2ag | fdec BAGF | G2G2 G2 :|
|: ef |\
a2a2 f2d2 | g2ab g3f | edec B2AG | FGEF D2dc |
BcAB G2dc | B2a2 a2ba | fdec BAGF | G2G2 G2 :|


%%sep 1 1 500

%%sep 1 1 500

